X: 34931
T: Rocking The Boat
R: jig
M: 6/8
K: Amajor
AA,A, ABc|AEE ABc|AFF d2B|cBA BAF|
AA,A, ABc AEE ABc e2c e2c BAF FEF:|
cea A3|ecA FEF|cea A3|BAB cAF|
cea A3|ecA FEF|e2c e2c BAF FEF|
cea A3|ecA FEF|cea Aaf|ecA cBB|
cea A3|ecA FEF|e2c e2c BAF FEF||

